actions/16/view-calendar-agenda.svg

<svg xmlns="http://www.w3.org/2000/svg" viewBox="0 0 16 16">
  <defs id="defs3051">
<style type="text/css" id="current-color-scheme">.ColorScheme-Text {color:#fcfcfc;}</style>
  </defs>
 <path style="fill:currentColor;fill-opacity:1;stroke:none" 
     d="M 2,2 V 4 H 3 V 5 H 2 v 6 h 1 v 1 H 2 v 2 h 3 c 0,0 5,0 7,0 2,0 2,-2 2,-2 V 4 C 14,4 14,2 12,2 10,2 5,2 5,2 Z M 5,3 H 7 V 5 H 5 Z m 3,0 c 0,0 3,0 4,0 1,0 1,1 1,1 V 5 H 8 Z M 5,6 h 2 v 1 1 1 1 H 5 V 9 8 7 Z m 3,0 h 5 v 2 1 1 H 8 V 9 8 Z m -3,5 h 2 v 2 H 5 Z m 3,0 h 5 v 1 c 0,0 0,1 -1,1 -1,0 -4,0 -4,0 z"
     class="ColorScheme-Text"
     />
</svg>

<svg xmlns="http://www.w3.org/2000/svg" viewBox="0 0 16 16">
  <defs id="defs3051">
    <style type="text/css" id="current-color-scheme">
      .ColorScheme-Text {
        color:#eff0f1;
      }
      </style>
  </defs>
 <path style="fill:currentColor;fill-opacity:1;stroke:none" 
     d="M 2 2 L 2 4 L 3 4 L 3 5 L 2 5 L 2 11 L 3 11 L 3 12 L 2 12 L 2 14 L 5 14 L 13 14 L 14 14 L 14 3 L 14 2 L 5 2 L 2 2 z M 5 3 L 7 3 L 7 5 L 5 5 L 5 3 z M 8 3 L 13 3 L 13 5 L 8 5 L 8 3 z M 5 6 L 7 6 L 7 7 L 7 8 L 7 9 L 7 10 L 5 10 L 5 9 L 5 8 L 5 7 L 5 6 z M 8 6 L 13 6 L 13 8 L 13 9 L 13 10 L 8 10 L 8 9 L 8 8 L 8 6 z M 5 11 L 7 11 L 7 13 L 5 13 L 5 11 z M 8 11 L 13 11 L 13 13 L 8 13 L 8 11 z "
     class="ColorScheme-Text"
     />
</svg>
